X:1
T:Gladstone
R:reel
M:4/4
L:1/8
K:A
|:cAdA efga|~A2cA BE~E2|EBcd efga|1 ecdB Afed:|2 ecdB Aefg|]
|aAba gAag|fAaf ecce|dB~B2 ceAc|~B2Bc defg|
|aA~A2 eAce|aAgA fAce|~d2fd ceaf|ecdB Afed|